Numix-GalliumOS/22/actions/stock_new-meeting.svg

<?xml version="1.0" encoding="UTF-8" standalone="no"?>
<svg
   xmlns:dc="http://purl.org/dc/elements/1.1/"
   xmlns:cc="http://creativecommons.org/ns#"
   xmlns:rdf="http://www.w3.org/1999/02/22-rdf-syntax-ns#"
   xmlns:svg="http://www.w3.org/2000/svg"
   xmlns="http://www.w3.org/2000/svg"
   xmlns:sodipodi="http://sodipodi.sourceforge.net/DTD/sodipodi-0.dtd"
   xmlns:inkscape="http://www.inkscape.org/namespaces/inkscape"
   width="22"
   height="22"
   viewBox="0 0 22 22"
   id="svg2"
   version="1.1"
   inkscape:version="0.91 r"
   sodipodi:docname="stock_new-meeting.svg">
  <metadata
     id="metadata12">
    <rdf:RDF>
      <cc:Work
         rdf:about="">
        <dc:format>image/svg+xml</dc:format>
        <dc:type
           rdf:resource="http://purl.org/dc/dcmitype/StillImage" />
        <dc:title></dc:title>
      </cc:Work>
    </rdf:RDF>
  </metadata>
  <defs
     id="defs10" />
  <sodipodi:namedview
     pagecolor="#ffffff"
     bordercolor="#666666"
     borderopacity="1"
     objecttolerance="10"
     gridtolerance="10"
     guidetolerance="10"
     inkscape:pageopacity="0"
     inkscape:pageshadow="2"
     inkscape:window-width="1920"
     inkscape:window-height="1056"
     id="namedview8"
     showgrid="true"
     inkscape:zoom="8"
     inkscape:cx="8.4929338"
     inkscape:cy="3.2732673"
     inkscape:window-x="0"
     inkscape:window-y="24"
     inkscape:window-maximized="1"
     inkscape:current-layer="svg2">
    <inkscape:grid
       type="xygrid"
       id="grid4140" />
  </sodipodi:namedview>
  <path
     style="fill:#6c71c4;fill-opacity:1"
     d="M 5.004406,4.4601974 C 4.4052793,6.5297051 4.3920995,9.393292 5.4584822,10.805798 c 0.4482537,0.671275 1.0605583,1.552473 0.5815431,2.353725 -0.8862019,1.251103 -2.3642469,1.92666 -3.7104368,2.60793 C 2,15.958571 2,15.903125 2,16.531532 2,17 2,17 2.2973641,17 L 15.202626,17 C 15.5,17 15.5,17 15.5,16.531532 c 0,-0.628407 0,-0.588978 -0.329598,-0.764079 -1.34618,-0.68127 -2.824226,-1.356827 -3.710427,-2.60793 -0.479015,-0.801252 0.13329,-1.68245 0.581543,-2.353725 C 13.167974,9.2690146 13.314443,5.9226974 12.492683,4.4145089 11.75,3.10625 11,2.4249824 8.75,2.375 6.4970754,2.463569 5.7500004,3.10625 5.004406,4.4601974 Z"
     id="path4-0"
     inkscape:connector-curvature="0"
     sodipodi:nodetypes="cccccccccccccc" />
  <path
     style="fill:#cb4b16;fill-opacity:1"
     d="M 9.5044058,7.4601977 C 8.9052788,9.529705 8.8920996,12.393293 9.9584829,13.805799 10.406735,14.477073 11.019041,15.35827 10.540025,16.159521 9.6538231,17.410627 8.1757785,18.086185 6.8295885,18.767451 6.5,18.958571 6.5,18.903125 6.5,19.531532 6.5,20 6.5,20 6.7973641,20 L 19.702624,20 C 20,20 20,20 20,19.531532 20,18.903125 20,18.942554 19.670401,18.767451 18.324222,18.086185 16.846177,17.410627 15.959976,16.159521 15.480958,15.35827 16.093265,14.477073 16.541517,13.805799 17.667974,12.269014 17.81444,8.9226977 16.992682,7.4145092 16.249999,6.1062501 15.499999,5.4249824 13.25,5.375 c -2.252925,0.088569 -3,0.7312501 -3.7455942,2.0851977 z"
     id="path4"
     inkscape:connector-curvature="0"
     sodipodi:nodetypes="cccccccccccccc" />
  <path
     inkscape:connector-curvature="0"
     style="fill:#859900"
     d="m 22,14.000001 -4,0 0,-4 -4,0 0,4 -4,0 L 10,18 l 4,0 0,4 4,0 0,-4 4,0 z"
     id="path4143" />
</svg>

<svg xmlns="http://www.w3.org/2000/svg" viewBox="0 0 22 22">
 <path d="m 5 4.46 c -0.599 2.07 -0.612 4.933 0.454 6.346 c 0.448 0.671 1.061 1.552 0.582 2.354 -0.886 1.251 -2.364 1.927 -3.71 2.608 c -0.33 0.191 -0.33 0.136 -0.33 0.764 0 0.468 0 0.468 0.297 0.468 l 12.905 0 c 0.297 0 0.297 0 0.297 -0.468 c 0 -0.628 0 -0.589 -0.33 -0.764 -1.346 -0.681 -2.824 -1.357 -3.71 -2.608 -0.479 -0.801 0.133 -1.682 0.582 -2.354 c 1.126 -1.537 1.273 -4.883 0.451 -6.391 -0.743 -1.308 -1.493 -1.99 -3.743 -2.04 -2.253 0.089 -3 0.731 -3.746 2.085" style="fill:#6c71c4;fill-opacity:1"/>
 <path d="m 9.504 7.46 c -0.599 2.07 -0.612 4.933 0.454 6.346 0.448 0.671 1.061 1.552 0.582 2.354 -0.886 1.251 -2.364 1.927 -3.71 2.608 -0.33 0.191 -0.33 0.136 -0.33 0.764 0 0.468 0 0.468 0.297 0.468 l 12.905 0 c 0.297 0 0.297 0 0.297 -0.468 0 -0.628 0 -0.589 -0.33 -0.764 -1.346 -0.681 -2.824 -1.357 -3.71 -2.608 -0.479 -0.801 0.133 -1.682 0.582 -2.354 1.126 -1.537 1.273 -4.883 0.451 -6.391 -0.743 -1.308 -1.493 -1.99 -3.743 -2.04 c -2.253 0.089 -3 0.731 -3.746 2.085 z" style="fill:#cb4b16;fill-opacity:1"/>
 <path d="m 22 14 -4 0 0 -4 -4 0 0 4 -4 0 l 0 4 l 4 0 0 4 4 0 0 -4 4 0 z" style="fill:#859900"/>
</svg>
